X:1
T:Erdő mellett estvéledtem
C:Hungarian folk song
Z:Public Domain
L:1/8
M:4/4
K:C
V:1 treble nm="Voice"
%%MIDI program 52
V:1
 G G3 E2 C2 | D D3 B,2 G,2 | A A3 G F3 | G G3 E2 C2 | E3 F G A3 | G3 C B, A,3 | D3 D C B,3 | %7
w: Er- dő mel- lett|est- vé- led- tem,|Su- bám fe- jem|a- lá tet- tem,|Ösz- sze- tet- tem|két ke- ze- met,|Úgy kér- tem jó|
 C3 C D C3 |] %8
w: Is- te- ne- met.-|

